X: 1254
T: Bert Jamieson's Beauty No 2
B: australian traditional tunes wiki
M:6/8
L:1/8
R: Jig
Q: 3/8=100
K:G
V:1 
|:"G"d2g gfg|"Am"a2e e2e|"D7"d2e f2e|"G"d2g g2g|
d2g gfg|"Am"a2e efe|"D7"d2e f2e|def "G"g2g:|
|:"Am"a2e a2e|"G"bag d3|b2d b2d|"Em"bag e2e|
"Am"a2e a2e|"G"bag d3|"D7"afe def|"G"g3-g3:|
% abcbook-tune_id 6342d53a4f0b652bb84ecaac


% abcbook-boost 0
% abcbook-tablature 
% abcbook-transpose 
% abcbook-lastupdated 1665324356204
% abcbook-soundfonts 
% abcbook-repeats 1
% NFF Book 2009

